X: 13233
T: Fisherman's Horizon Concert
R: jig
M: 6/8
K: Dmajor
|:{G}A2F DFA|BGB {a}dcB|{G}A2F DFA|EFE EAG|
{E}F2D DFA|BGB {c}dcB|1 AFD EFE|D2D dcB:|
[2 GAc efe|d2{a}d d2e|:f2d {a}d2f|g2e {a}e2g|
f2d {a}def|e2c A>z g|f2d {a}d2f|g2e {a}e2g|
f (3e{f}e d {d}edc|1 d> dd {c}d2e:|2 d2z dcB|
K: Amaj
|:AcB A2A|FED Ez2|EGB dcB|{e}f2e c2B|
AcB A2A|FED Ez2|EGB dcB|1 A> {G}AA A2E:|2 A> {G}AA A2c|
|:{d}e2c ABc|{a}dBd {a}dBd|{B}c2A ABc|{A}B2G EGB|
[1 {d}e2c ABc|{a}dBd {a}fdf|{d}ecA {F}GFG|A> {G}AA A2c:|
[2 {E}FAG AEA|{A}Bdc dBd|{B}cBA {F}GFG|A> {G}AA A2z|

